gama.ui.shared/icons_svg/light/prefs/prefs.network2.svg

<svg height="25" viewBox="-630.483 -3074.721 25 25" width="25" xmlns="http://www.w3.org/2000/svg"><g fill="none"><path d="m-621.5827-3074.2213h7.2c2.4 0 3.6 0 5.04.48 1.2.48 2.4 1.68 2.88 2.88.48 1.44.48 2.64.48 5.04v7.2c0 2.4 0 3.6-.48 5.04-.48 1.2-1.68 2.4-2.88 2.88-1.44.48-2.64.48-5.04.48h-7.2c-2.4 0-3.6 0-5.04-.48-1.2-.48-2.4-1.68-2.88-2.88-.48-1.44-.48-2.64-.48-5.04v-7.2c0-2.4 0-3.6.48-5.04.48-1.2 1.68-2.4 2.88-2.88 1.44-.48 2.64-.48 5.04-.48m0 0" fill="#794577"/><path d="m-621.5827-3074.2213h7.2c2.4 0 3.6 0 5.04.48 1.2.48 2.4 1.68 2.88 2.88.48 1.44.48 2.64.48 5.04v7.2c0 2.4 0 3.6-.48 5.04-.48 1.2-1.68 2.4-2.88 2.88-1.44.48-2.64.48-5.04.48h-7.2c-2.4 0-3.6 0-5.04-.48-1.2-.48-2.4-1.68-2.88-2.88-.48-1.44-.48-2.64-.48-5.04v-7.2c0-2.4 0-3.6.48-5.04.48-1.2 1.68-2.4 2.88-2.88 1.44-.48 2.64-.48 5.04-.48m0 0" stroke="#65727e" stroke-linecap="round" stroke-linejoin="round" stroke-width=".25"/><path d="m-618.8716-3056.6276v-6.9271c0-.2453.199-.4443.44446-.4443.24544 0 .44444.199.44444.4443v6.9271l1.90796-1.908c.17354-.1734.45494-.1734.62854 0 .1736.1736.1736.455 0 .6286l-2.6667 2.6666c-.1735.1734-.45494.1734-.6285 0l-2.6667-2.6666c-.17354-.1736-.17354-.455 0-.6286.1736-.1734.455-.1734.6286 0zm4.21685-10.0382h.67205c2.20914 0 4 1.7908 4 4s-1.79086 4-4 4c-.24545 0-.44444-.199-.44444-.4444 0-.2455.19899-.4445.44444-.4445 1.7182 0 3.1111-1.3928 3.1111-3.1111 0-1.7182-1.3929-3.1112-3.1111-3.1112h-.46885c.01615.146.02441.2943.02441.4446 0 .2454-.19896.4444-.44446.4444-.24544 0-.4444-.199-.4444-.4444 0-1.7183-1.3929-3.1111-3.11114-3.1111h-.44446c-1.96366 0-3.55554 1.5918-3.55554 3.5555v.4445c0 .2455-.19896.4445-.44446.4445-1.2273 0-2.2222.995-2.2222 2.222 0 1.2274.9949 2.2223 2.2222 2.2223.2455 0 .44446.199.44446.4445 0 .2454-.19896.4444-.44446.4444-1.7182 0-3.1111-1.3929-3.1111-3.1112 0-1.5672 1.159-2.864 2.6667-3.0795 0-2.4861 1.9898-4.4759 4.4444-4.4759h.44446c1.74164 0 3.22328 1.113 3.77239 2.6666z" fill="#fff"/></g></svg>

<?xml version="1.0" encoding="UTF-8" standalone="no"?>
<!DOCTYPE svg PUBLIC "-//W3C//DTD SVG 1.1//EN" "http://www.w3.org/Graphics/SVG/1.1/DTD/svg11.dtd">
<svg xmlns:xl="http://www.w3.org/1999/xlink" xmlns:dc="http://purl.org/dc/elements/1.1/" version="1.1" xmlns="http://www.w3.org/2000/svg" viewBox="-630.4827 -3074.7213 25 25" width="25" height="25">
  <defs/>
  <g id="SOURCES" stroke="none" stroke-dasharray="none" stroke-opacity="1" fill="none" fill-opacity="1">
    <title>SOURCES</title>
    <g id="SOURCES_Light">
      <title>Light</title>
      <g id="Graphic_12511">
        <path d="M -621.5827 -3074.2213 L -614.3827 -3074.2213 C -611.9827 -3074.2213 -610.7827 -3074.2213 -609.3427 -3073.7413 C -608.1427 -3073.2613 -606.9427 -3072.0613 -606.4627 -3070.8613 C -605.9827 -3069.4213 -605.9827 -3068.2213 -605.9827 -3065.8213 L -605.9827 -3058.6213 C -605.9827 -3056.2213 -605.9827 -3055.0213 -606.4627 -3053.5813 C -606.9427 -3052.3813 -608.1427 -3051.1813 -609.3427 -3050.7013 C -610.7827 -3050.2213 -611.9827 -3050.2213 -614.3827 -3050.2213 L -621.5827 -3050.2213 C -623.9827 -3050.2213 -625.1827 -3050.2213 -626.6227 -3050.7013 C -627.8227 -3051.1813 -629.0227 -3052.3813 -629.5027 -3053.5813 C -629.9827 -3055.0213 -629.9827 -3056.2213 -629.9827 -3058.6213 L -629.9827 -3065.8213 C -629.9827 -3068.2213 -629.9827 -3069.4213 -629.5027 -3070.8613 C -629.0227 -3072.0613 -627.8227 -3073.2613 -626.6227 -3073.7413 C -625.1827 -3074.2213 -623.9827 -3074.2213 -621.5827 -3074.2213 M -621.5827 -3074.2213" fill="#794577"/>
        <path d="M -621.5827 -3074.2213 L -614.3827 -3074.2213 C -611.9827 -3074.2213 -610.7827 -3074.2213 -609.3427 -3073.7413 C -608.1427 -3073.2613 -606.9427 -3072.0613 -606.4627 -3070.8613 C -605.9827 -3069.4213 -605.9827 -3068.2213 -605.9827 -3065.8213 L -605.9827 -3058.6213 C -605.9827 -3056.2213 -605.9827 -3055.0213 -606.4627 -3053.5813 C -606.9427 -3052.3813 -608.1427 -3051.1813 -609.3427 -3050.7013 C -610.7827 -3050.2213 -611.9827 -3050.2213 -614.3827 -3050.2213 L -621.5827 -3050.2213 C -623.9827 -3050.2213 -625.1827 -3050.2213 -626.6227 -3050.7013 C -627.8227 -3051.1813 -629.0227 -3052.3813 -629.5027 -3053.5813 C -629.9827 -3055.0213 -629.9827 -3056.2213 -629.9827 -3058.6213 L -629.9827 -3065.8213 C -629.9827 -3068.2213 -629.9827 -3069.4213 -629.5027 -3070.8613 C -629.0227 -3072.0613 -627.8227 -3073.2613 -626.6227 -3073.7413 C -625.1827 -3074.2213 -623.9827 -3074.2213 -621.5827 -3074.2213 M -621.5827 -3074.2213" stroke="#65727e" stroke-linecap="round" stroke-linejoin="round" stroke-width=".25"/>
      </g>
      <g id="Graphic_12512">
        <path d="M -618.8716 -3056.6276 L -618.8716 -3063.5547 C -618.8716 -3063.8 -618.6726 -3063.999 -618.42714 -3063.999 C -618.1817 -3063.999 -617.9827 -3063.8 -617.9827 -3063.5547 L -617.9827 -3056.6276 L -616.07474 -3058.5356 C -615.9012 -3058.709 -615.6198 -3058.709 -615.4462 -3058.5356 C -615.2726 -3058.362 -615.2726 -3058.0806 -615.4462 -3057.907 L -618.1129 -3055.2404 C -618.2864 -3055.067 -618.56784 -3055.067 -618.7414 -3055.2404 L -621.4081 -3057.907 C -621.58164 -3058.0806 -621.58164 -3058.362 -621.4081 -3058.5356 C -621.2345 -3058.709 -620.9531 -3058.709 -620.7795 -3058.5356 Z M -614.65475 -3066.6658 L -613.9827 -3066.6658 C -611.77356 -3066.6658 -609.9827 -3064.875 -609.9827 -3062.6658 C -609.9827 -3060.4566 -611.77356 -3058.6658 -613.9827 -3058.6658 C -614.22815 -3058.6658 -614.42714 -3058.8648 -614.42714 -3059.1102 C -614.42714 -3059.3557 -614.22815 -3059.5547 -613.9827 -3059.5547 C -612.2645 -3059.5547 -610.8716 -3060.9475 -610.8716 -3062.6658 C -610.8716 -3064.384 -612.2645 -3065.777 -613.9827 -3065.777 L -614.45155 -3065.777 C -614.4354 -3065.631 -614.42714 -3065.4827 -614.42714 -3065.3324 C -614.42714 -3065.087 -614.6261 -3064.888 -614.8716 -3064.888 C -615.11704 -3064.888 -615.316 -3065.087 -615.316 -3065.3324 C -615.316 -3067.0507 -616.7089 -3068.4435 -618.42714 -3068.4435 L -618.8716 -3068.4435 C -620.83526 -3068.4435 -622.42714 -3066.8517 -622.42714 -3064.888 L -622.42714 -3064.4435 C -622.42714 -3064.198 -622.6261 -3063.999 -622.8716 -3063.999 C -624.0989 -3063.999 -625.0938 -3063.004 -625.0938 -3061.777 C -625.0938 -3060.5496 -624.0989 -3059.5547 -622.8716 -3059.5547 C -622.6261 -3059.5547 -622.42714 -3059.3557 -622.42714 -3059.1102 C -622.42714 -3058.8648 -622.6261 -3058.6658 -622.8716 -3058.6658 C -624.5898 -3058.6658 -625.9827 -3060.0587 -625.9827 -3061.777 C -625.9827 -3063.3442 -624.8237 -3064.641 -623.316 -3064.8565 C -623.316 -3067.3426 -621.3262 -3069.3324 -618.8716 -3069.3324 L -618.42714 -3069.3324 C -616.6855 -3069.3324 -615.20386 -3068.2194 -614.65475 -3066.6658 Z" fill="white"/>
      </g>
    </g>
  </g>
</svg>
